svg/power_redundancy_off.svg

<svg width="24" height="24" viewBox="0 0 24 24" xmlns="http://www.w3.org/2000/svg">
<path d="M7.999 15V7H9.999L6.999 4L3.99902 7H5.999V15C5.999 17.2092 7.7899 19 9.999 19H10.999V17H9.999C8.89445 17 7.999 16.1046 7.999 15Z" />
<path d="M17.999 13.1264V9C17.999 6.79085 16.2082 5 13.999 5H12.999V7H13.999C15.1036 7 15.999 7.89545 15.999 9V13.1265C16.3187 13.0442 16.6539 13.0004 16.9993 13.0004C17.3445 13.0004 17.6795 13.0441 17.999 13.1264Z" />
<path d="M20.0702 15.8288L18.656 17.243L20.0702 18.6572L18.656 20.0715L17.2418 18.6572L15.8276 20.0715L14.4133 18.6572L15.8276 17.243L14.4133 15.8288L15.8276 14.4146L17.2418 15.8288L18.656 14.4146L20.0702 15.8288Z" />
</svg>

<svg width="24" height="24" viewBox="0 0 24 24" xmlns="http://www.w3.org/2000/svg"><path d="M7.999 15V7h2l-3-3-3 3h2v8a4 4 0 0 0 4 4h1v-2h-1a2 2 0 0 1-2-2zM17.999 13.126V9a4 4 0 0 0-4-4h-1v2h1a2 2 0 0 1 2 2v4.127a4.008 4.008 0 0 1 2 0zM20.07 15.829l-1.414 1.414 1.414 1.414-1.414 1.415-1.414-1.415-1.414 1.415-1.415-1.415 1.415-1.414-1.415-1.414 1.415-1.414 1.414 1.414 1.414-1.414 1.414 1.414z"/></svg>
